src/assets/icons/weeks,simple,12.svg

<svg width="48" height="48" viewBox="0 0 48 48" fill="none" xmlns="http://www.w3.org/2000/svg">
<rect opacity="0.2" x="5" y="5" width="38" height="38" rx="4" fill="black"/>
<path d="M5 13C5 9.22876 5 7.34315 6.17157 6.17157C7.34315 5 9.22876 5 13 5H35C38.7712 5 40.6569 5 41.8284 6.17157C43 7.34315 43 9.22876 43 13V15H5V13Z" fill="black"/>
<path d="M19.5788 20.5455H16.1101L11.7891 23.2812V26.554L15.7862 24.0483H15.8885V38H19.5788V20.5455ZM23.7273 38H36.1705V34.983H28.8409V34.8636L31.3892 32.3665C34.9773 29.0938 35.9403 27.4574 35.9403 25.4716C35.9403 22.446 33.4688 20.3068 29.7273 20.3068C26.0625 20.3068 23.5483 22.4972 23.5568 25.9233H27.0597C27.0511 24.2528 28.108 23.2301 29.7017 23.2301C31.2358 23.2301 32.3778 24.1847 32.3778 25.7188C32.3778 27.108 31.5256 28.0625 29.9403 29.5881L23.7273 35.3409V38Z" fill="black"/>
</svg>

<svg xmlns="http://www.w3.org/2000/svg" width="48" height="48" fill="none" viewBox="0 0 48 48">
  <rect width="38" height="38" x="5" y="5" fill="#000" opacity=".2" rx="4"/>
  <path fill="#000" d="M5 13c0-3.771 0-5.657 1.172-6.828C7.343 5 9.229 5 13 5h22c3.771 0 5.657 0 6.828 1.172C43 7.343 43 9.229 43 13v2H5v-2zM19.579 20.546H16.11l-4.32 2.735v3.273l3.996-2.506h.103V38h3.69V20.546zM23.727 38H36.17v-3.017h-7.33v-.12l2.55-2.496c3.587-3.273 4.55-4.91 4.55-6.895 0-3.026-2.471-5.165-6.213-5.165-3.665 0-6.179 2.19-6.17 5.616h3.503c-.009-1.67 1.048-2.693 2.642-2.693 1.534 0 2.676.955 2.676 2.489 0 1.389-.852 2.343-2.438 3.87l-6.213 5.752V38z"/>
</svg>
